assets/base/img/common/icon_facebook.svg

<?xml version="1.0" encoding="UTF-8"?>
<svg width="24px" height="24px" viewBox="0 0 24 24" version="1.1" xmlns="http://www.w3.org/2000/svg" xmlns:xlink="http://www.w3.org/1999/xlink">
    <!-- Generator: Sketch 63 (92445) - https://sketch.com -->
    <title>icon_icon_facebook</title>
    <desc>Created with Sketch.</desc>
    <g id="PC" stroke="none" stroke-width="1" fill="none" fill-rule="evenodd">
        <g id="news_detail_category" transform="translate(-261.000000, -385.000000)">
            <g id="icon_sns" transform="translate(260.000000, 335.000000)">
                <g id="icon_facebook" transform="translate(1.000000, 50.000000)">
                    <g id="f_logo_RGB-Blue_1024" transform="translate(6.400000, 4.000000)" fill="#FFFFFF">
                        <path d="M10.2710938,11.46875 L10.803125,8 L7.475,8 L7.475,5.74899219 C7.475,4.80000781 7.93988281,3.875 9.43057812,3.875 L10.94375,3.875 L10.94375,0.921875 C10.94375,0.921875 9.57047656,0.6875 8.25757813,0.6875 C5.51651563,0.6875 3.725,2.34875 3.725,5.35625 L3.725,8 L0.678125,8 L0.678125,11.46875 L3.725,11.46875 L3.725,19.8542187 C4.33594531,19.9500781 4.962125,20 5.6,20 C6.237875,20 6.86405469,19.9500781 7.475,19.8542187 L7.475,11.46875 L10.2710938,11.46875" id="Fill-4"></path>
                    </g>
                    <g id="Group-3" fill="#1877F2">
                        <path d="M24,12 C24,5.37257813 18.6274219,0 12,0 C5.37257813,0 0,5.37257813 0,12 C0,17.9895469 4.38822656,22.9539844 10.125,23.8542188 L10.125,15.46875 L7.078125,15.46875 L7.078125,12 L10.125,12 L10.125,9.35625 C10.125,6.34875 11.9165156,4.6875 14.6575781,4.6875 C15.9704766,4.6875 17.34375,4.921875 17.34375,4.921875 L17.34375,7.875 L15.8305781,7.875 C14.3398828,7.875 13.875,8.80000781 13.875,9.74899219 L13.875,12 L17.203125,12 L16.6710938,15.46875 L13.875,15.46875 L13.875,23.8542188 C19.6117734,22.9539844 24,17.9895469 24,12" id="Fill-1"></path>
                    </g>
                </g>
            </g>
        </g>
    </g>
</svg>

<svg width="24" height="24" xmlns="http://www.w3.org/2000/svg"><g fill="none" fill-rule="evenodd"><path d="M16.671 15.469L17.203 12h-3.328V9.749c0-.949.465-1.874 1.956-1.874h1.513V4.922s-1.374-.235-2.686-.235c-2.741 0-4.533 1.662-4.533 4.67V12H7.078v3.469h3.047v8.385a12.09 12.09 0 003.75 0V15.47h2.796" fill="#FFF"/><path d="M24 12c0-6.627-5.373-12-12-12S0 5.373 0 12c0 5.99 4.388 10.954 10.125 11.854V15.47H7.078V12h3.047V9.356c0-3.007 1.792-4.668 4.533-4.668 1.312 0 2.686.234 2.686.234v2.953H15.83c-1.491 0-1.956.925-1.956 1.874V12h3.328l-.532 3.469h-2.796v8.385C19.612 22.954 24 17.99 24 12" fill="#1877F2"/></g></svg>
